X:1167
M:C
L:1/4
Q:1/4=160
K:G
ecce|egge|dBBd|dggd|eccA|dBBG|cAAF|G2G2:|

